X:10
T: ES VERLIEBTE SICH EIN WILDER WASSERMANN
N: E0001I
O: Europa, Mitteleuropa, Deutschland, Magdeburg
R: Sage, Maerchen -, Zauber - Lied
M: 4/4
L: 1/8
K: A
EE | AAEEA2B2 | c2cBA2z2 |
c3de2e2 | edd2c2
Ac | eee2d2dB | AcA2E2
E2 | FFF2E2G2 | A4z2

@@@ Tune index: 3660
